src/icons/upstream.svg

<svg xmlns="http://www.w3.org/2000/svg" fill="none" viewBox="0 0 500 108" height="32" width="150" alt="upstream-logo">
<path xmlns="http://www.w3.org/2000/svg" d="M157.69 44.7785C157.78 44.7785 148.23 42.6505 148.23 42.6505C142.57 41.1719 136.73 39.0339 136.73 33.6588C136.73 24.9469 147.49 24.4873 149.71 24.4873C158.43 24.4873 163.9 28.9332 164.18 36.4463V37.3754H173.18V36.4463C172.72 24.2076 164.18 16.7045 150.74 16.7045C139.33 16.4248 127.83 21.7998 127.83 33.8487C127.83 44.9684 136.27 48.1254 144.9 50.4433L154.17 52.4814C161.68 54.3297 166.32 56.5576 166.32 62.3023C166.32 70.3649 156.4 72.5029 151.2 72.5029C141.46 72.5029 135.34 67.3077 134.78 58.6957L134.69 57.8564H125.6L125.69 58.8755C126.8 72.7826 135.71 80.4755 150.73 80.4755C162.88 80.4755 175.21 74.7308 175.21 61.9426C175.22 48.4851 161.77 45.328 157.69 44.7785Z" fill="#1D427A"></path>
<path xmlns="http://www.w3.org/2000/svg" d="M43.31 18.0033V50.723C43.31 65.4594 35.15 75.9297 21.61 75.9297C5.19 75.9297 4.45 62.4022 4.45 56.188V18.0033H0V55.3587C0 62.682 0.280001 79.7362 21.52 79.7362C30.89 79.7362 40.07 74.4511 43.13 65.4594H43.41V78.3375H47.86L47.77 18.0033H43.31Z" fill="#1D427A"></path>
<path xmlns="http://www.w3.org/2000/svg" d="M89.99 16.4348C80.25 16.4348 71.91 21.4402 68.47 29.5926H68.19V18.0932H61.42V108H68.75V67.0379H69.03C72.18 75.6599 80.99 80.1957 89.99 80.1957C108.35 80.1957 117.16 65.3695 117.16 48.3053C117.16 31.2611 108.35 16.4348 89.99 16.4348ZM89.99 73.8017C74.32 73.8017 68.84 60.6439 68.84 48.1254C68.84 34.4981 73.76 22.4492 89.99 22.4492C103.99 22.4492 109.74 35.7069 109.74 48.1254C109.74 60.5539 103.99 73.8017 89.99 73.8017Z" fill="#1D427A"></path>
<path xmlns="http://www.w3.org/2000/svg" d="M191.15 0V18.0733H180.86V26.7852H191.15V65.1597C191.15 76.1895 195.23 78.3175 205.53 78.3175H213.13V69.6056H208.59C202.38 69.6056 201.08 68.7763 201.08 64.2305V26.7852H213.14V18.0733H201.08V0H191.15Z" fill="#1D427A"></path>
<path xmlns="http://www.w3.org/2000/svg" d="M236.43 29.7724H236.15V18.1032H223.63V78.4374H236.99V49.704C236.99 36.3563 244.22 29.0331 253.31 29.0331C255.16 29.0331 257.21 29.3129 259.06 29.5926V16.8044C257.95 16.7145 257.11 16.4348 254.05 16.4348C245.89 16.4348 237.91 23.3784 236.43 29.7724Z" fill="#1D427A"></path>
<path xmlns="http://www.w3.org/2000/svg" d="M291.87 16.4947C273.6 16.4947 261.08 30.3019 261.08 48.3852C261.08 67.018 272.86 80.0859 291.87 80.0859C305.6 80.0859 315.52 74.0614 320.16 59.7847H305.6C304.58 63.4912 299.2 67.5674 292.52 67.5674C283.27 67.5674 278.18 62.7719 277.69 52.3615H277.68V52.2716C277.68 52.3016 277.69 52.3316 277.69 52.3615H321.18C322.38 33.7388 312.46 16.4947 291.87 16.4947ZM277.68 41.7114C277.96 37.0757 281.02 28.9232 291.5 28.9232C299.57 28.9232 303.19 33.2792 304.67 41.7114H277.68Z" fill="#1D427A"></path>
<path xmlns="http://www.w3.org/2000/svg" d="M387.7 36.4063C387.7 19.2622 373.79 16.1051 359.41 16.1051C352.45 16.1051 345.5 17.2141 340.12 20.2712C334.74 23.4183 331.03 28.5236 330.66 36.4962H349.3C350.23 31.301 353.75 28.8932 359.22 28.8932C363.3 28.8932 368.77 30.6516 368.77 35.1974C368.77 38.904 366.82 40.013 363.48 40.7623C349.75 43.6396 328.24 42.0611 328.24 61.8028C328.24 74.3112 337.33 80.1558 348.92 80.1558C356.15 80.1558 363.76 78.0278 368.86 72.6427C369.14 74.6809 369.32 76.5391 370.07 78.3874H390.01C387.69 73.6618 387.69 68.007 387.69 62.9118V36.4063H387.7ZM356.26 67.8272C351.9 67.8272 348.01 65.879 348.01 60.8736C348.01 56.0581 351.72 54.1998 356.17 53.1808C360.44 52.0718 365.63 51.6921 368.41 49.9338C368.87 62.4522 365.72 67.8272 356.26 67.8272Z" fill="#1D427A"></path>
<path xmlns="http://www.w3.org/2000/svg" d="M479.33 16.5347C464.3 16.5347 459.67 25.2466 458.74 25.9859C455.96 19.8716 448.91 16.5347 442.42 16.5347C434.07 16.5347 427.3 19.1323 422.67 26.0858H422.39V18.1132H400.13L400.22 78.3674H423.22V45.7277C423.22 39.4235 425.17 34.8877 431.01 34.8877C438.06 34.8877 438.61 40.0829 438.61 45.7277V78.3575H461.61V45.7277C461.61 39.4235 463.56 34.8877 469.4 34.8877C476.45 34.8877 477 40.0829 477 45.7277V78.3575H500V37.0157C500.01 27.1948 494.81 16.5347 479.33 16.5347Z" fill="#1D427A"></path>
</svg>

<svg xmlns="http://www.w3.org/2000/svg" viewBox="0 0 500 108">
  <title>Upstream</title>
  <path fill="#1D427A" d="M157.69 44.779c.09 0-9.46-2.129-9.46-2.129-5.66-1.478-11.5-3.616-11.5-8.991 0-8.712 10.76-9.172 12.98-9.172 8.72 0 14.19 4.446 14.47 11.96v.928h9v-.929c-.46-12.238-9-19.741-22.44-19.741-11.41-.28-22.91 5.095-22.91 17.144 0 11.12 8.44 14.276 17.07 16.594l9.27 2.038c7.51 1.849 12.15 4.077 12.15 9.821 0 8.063-9.92 10.2-15.12 10.2-9.74 0-15.86-5.194-16.42-13.806l-.09-.84h-9.09l.09 1.02c1.11 13.907 10.02 21.6 25.04 21.6 12.15 0 24.48-5.745 24.48-18.533.01-13.458-13.44-16.615-17.52-17.164ZM43.31 18.003v32.72c0 14.736-8.16 25.207-21.7 25.207-16.42 0-17.16-13.528-17.16-19.742V18.003H0V55.36c0 7.323.28 24.377 21.52 24.377 9.37 0 18.55-5.285 21.61-14.277h.28v12.879h4.45l-.09-60.335h-4.46ZM89.99 16.435c-9.74 0-18.08 5.005-21.52 13.158h-.28v-11.5h-6.77V108h7.33V67.038h.28c3.15 8.622 11.96 13.158 20.96 13.158 18.36 0 27.17-14.826 27.17-31.89 0-17.045-8.81-31.871-27.17-31.871Zm0 57.367c-15.67 0-21.15-13.158-21.15-25.677 0-13.627 4.92-25.676 21.15-25.676 14 0 19.75 13.258 19.75 25.676 0 12.429-5.75 25.677-19.75 25.677ZM191.15 0v18.073h-10.29v8.712h10.29V65.16c0 11.03 4.08 13.157 14.38 13.157h7.6v-8.711h-4.54c-6.21 0-7.51-.83-7.51-5.375V26.785h12.06v-8.712h-12.06V0h-9.93ZM236.43 29.772h-.28V18.103h-12.52v60.334h13.36V49.704c0-13.348 7.23-20.67 16.32-20.67 1.85 0 3.9.279 5.75.559V16.804c-1.11-.09-1.95-.37-5.01-.37-8.16 0-16.14 6.944-17.62 13.338ZM291.87 16.495c-18.27 0-30.79 13.807-30.79 31.89 0 18.633 11.78 31.7 30.79 31.7 13.73 0 23.65-6.024 28.29-20.3H305.6c-1.02 3.706-6.4 7.782-13.08 7.782-9.25 0-14.34-4.795-14.83-15.205h-.01v-.09c0 .03.01.06.01.09h43.49c1.2-18.623-8.72-35.867-29.31-35.867ZM277.68 41.71c.28-4.635 3.34-12.788 13.82-12.788 8.07 0 11.69 4.356 13.17 12.788h-26.99ZM387.7 36.406c0-17.144-13.91-20.3-28.29-20.3-6.96 0-13.91 1.108-19.29 4.165-5.38 3.147-9.09 8.253-9.46 16.225h18.64c.93-5.195 4.45-7.603 9.92-7.603 4.08 0 9.55 1.759 9.55 6.304 0 3.707-1.95 4.816-5.29 5.565-13.73 2.878-35.24 1.3-35.24 21.04 0 12.51 9.09 18.354 20.68 18.354 7.23 0 14.84-2.128 19.94-7.513.28 2.038.46 3.896 1.21 5.744h19.94c-2.32-4.725-2.32-10.38-2.32-15.475V36.406h.01Zm-31.44 31.421c-4.36 0-8.25-1.948-8.25-6.953 0-4.816 3.71-6.674 8.16-7.693 4.27-1.11 9.46-1.489 12.24-3.247.46 12.518-2.69 17.893-12.15 17.893ZM479.33 16.535c-15.03 0-19.66 8.712-20.59 9.45-2.78-6.113-9.83-9.45-16.32-9.45-8.35 0-15.12 2.597-19.75 9.55h-.28v-7.972h-22.26l.09 60.254h23v-32.64c0-6.303 1.95-10.84 7.79-10.84 7.05 0 7.6 5.196 7.6 10.84v32.63h23v-32.63c0-6.303 1.95-10.84 7.79-10.84 7.05 0 7.6 5.196 7.6 10.84v32.63h23V37.017c.01-9.821-5.19-20.481-20.67-20.481Z"/>
</svg>
